packages/debug/src/browser/style/step-over-inverse.svg

<svg viewBox="0 0 16 16" xmlns="http://www.w3.org/2000/svg"><path d="m16 0v16h-16v-16z" fill="#252526" opacity="0"/><path d="m10 13a2 2 0 1 1 -2-2 2 2 0 0 1 2 2z" fill="#c5c5c5"/><path d="m15 2v6h-6v-2h2.237a4.481 4.481 0 0 0 -8.186 2h-2.026a6.482 6.482 0 0 1 11.975-2.931v-3.069z" fill="#75beff"/></svg>

<!--Copyright (c) Microsoft Corporation. All rights reserved.-->
<!--Copyright (C) 2018 TypeFox and others.-->
<!--Licensed under the MIT License. See License.txt in the project root for license information.-->
<svg xmlns="http://www.w3.org/2000/svg" viewBox="0 0 16 16"><defs><style>.icon-canvas-transparent,.icon-vs-out{fill:#252526;}.icon-canvas-transparent{opacity:0;}.icon-vs-bg{fill:#c5c5c5;}.icon-vs-action-blue{fill:#75beff;}</style></defs><title>step-over</title><g id="canvas"><path class="icon-canvas-transparent" d="M16,0V16H0V0Z"/></g><g id="outline" style="display: none;"><path class="icon-vs-out" d="M11,13a3,3,0,1,1-3-3A3,3,0,0,1,11,13ZM12,1V2.527A7.466,7.466,0,0,0,.028,7.923L0,8.293V9H3.945l.1-.888A3.475,3.475,0,0,1,8,5.036V9h8V1Z"/></g><g id="iconBg"><path class="icon-vs-bg" d="M10,13a2,2,0,1,1-2-2A2,2,0,0,1,10,13Z"/></g><g id="colorAction"><path class="icon-vs-action-blue" d="M15,2V8H9V6h2.237A4.481,4.481,0,0,0,3.051,8H1.025A6.482,6.482,0,0,1,13,5.069V2Z"/></g></svg>
